source/img/sprite/reddit.svg

<svg width="14" height="15" viewBox="0 0 14 15" fill="none" xmlns="http://www.w3.org/2000/svg">
<path d="M8.36171 0C7.91277 0 7.49149 0.244007 7.22128 0.59589C6.95106 0.947774 6.80213 1.37671 6.69362 1.82877C6.52128 2.55565 6.46808 3.36216 6.45532 4.08904C5.19361 4.17894 4.05105 4.57962 3.10211 5.19863C2.717 4.85188 2.25317 4.65925 1.80849 4.66438C1.3021 4.66952 0.821252 4.90325 0.463803 5.38356C-0.219178 6.30051 -0.140455 7.80051 0.651038 8.69178C0.602102 8.96661 0.565931 9.24914 0.565931 9.53425C0.565931 12.5548 3.44679 15 7 15C10.5532 15 13.4341 12.5522 13.4341 9.53425C13.4341 9.24914 13.3979 8.96661 13.349 8.69178C14.1405 7.80051 14.2192 6.30051 13.5362 5.38356C13.1788 4.90325 12.6979 4.66952 12.1915 4.66438C11.7468 4.65925 11.283 4.85188 10.8979 5.19863C9.9532 4.58219 8.81703 4.18151 7.5617 4.08904C7.57873 3.41866 7.62341 2.7226 7.74894 2.19863C7.82766 1.86986 7.92128 1.63099 8.02128 1.5C8.12128 1.36901 8.19362 1.31507 8.36171 1.31507C8.72554 1.31507 8.77235 1.44092 8.9915 1.74658C9.10214 1.90068 9.2298 2.09332 9.43405 2.28082C9.63831 2.46832 9.94044 2.63014 10.2681 2.63014V1.31507C10.1766 1.31507 10.1596 1.3125 10.0979 1.25342C10.0362 1.19435 9.95108 1.05822 9.82554 0.883562C9.57448 0.531678 9.08724 0 8.36171 0ZM11.9021 0.123288C11.0553 0.123288 10.3702 0.950343 10.3702 1.9726C10.3702 2.99486 11.0553 3.82192 11.9021 3.82192C12.749 3.82192 13.4341 2.99486 13.4341 1.9726C13.4341 0.950343 12.749 0.123288 11.9021 0.123288ZM11.9021 0.780822C12.4468 0.780822 12.8894 1.31507 12.8894 1.9726C12.8894 2.63014 12.4468 3.16438 11.9021 3.16438C11.3575 3.16438 10.9149 2.63014 10.9149 1.9726C10.9149 1.31507 11.3575 0.780822 11.9021 0.780822ZM7 5.11644C10.0149 5.11644 12.566 7.14298 12.566 9.53425C12.566 11.9281 10.0149 13.9521 7 13.9521C3.98509 13.9521 1.43402 11.9281 1.43402 9.53425C1.43402 7.14298 3.98509 5.11644 7 5.11644ZM1.82551 5.71233C1.97658 5.7149 2.13402 5.75599 2.28509 5.83562C1.73828 6.33647 1.30423 6.91182 1.00849 7.56164C0.80423 7.05308 0.85955 6.41866 1.11061 6.08219C1.29359 5.83562 1.54679 5.70976 1.82551 5.71233ZM12.1745 5.71233C12.4532 5.70976 12.7064 5.83562 12.8894 6.08219C13.1405 6.41866 13.1958 7.05308 12.9915 7.56164C12.6958 6.91182 12.2617 6.33647 11.7149 5.83562C11.866 5.75599 12.0234 5.7149 12.1745 5.71233ZM4.82127 7.35616C4.27658 7.35616 3.83403 7.89041 3.83403 8.54795C3.83403 9.20548 4.27658 9.73973 4.82127 9.73973C5.36595 9.73973 5.80851 9.20548 5.80851 8.54795C5.80851 7.89041 5.36595 7.35616 4.82127 7.35616ZM9.17873 7.35616C8.63405 7.35616 8.19149 7.89041 8.19149 8.54795C8.19149 9.20548 8.63405 9.73973 9.17873 9.73973C9.72342 9.73973 10.166 9.20548 10.166 8.54795C10.166 7.89041 9.72342 7.35616 9.17873 7.35616ZM4.29361 11.4041C4.64042 12.2697 5.71276 13.1096 7 13.1096C8.28724 13.1096 9.37661 12.2697 9.72342 11.4041C9.09363 11.8947 8.10001 12.226 7 12.226C5.9 12.226 4.9234 11.8947 4.29361 11.4041Z" fill="#2D383F"/>
</svg>

<svg viewBox="0 0 14 15" fill="none" xmlns="http://www.w3.org/2000/svg"><path d="M8.36 0c-.45 0-.87.24-1.14.6-.27.35-.42.78-.53 1.23-.17.73-.22 1.53-.23 2.26-1.27.09-2.4.49-3.36 1.1a1.94 1.94 0 0 0-1.3-.53c-.5.01-.98.24-1.34.72-.68.92-.6 2.42.2 3.31-.06.28-.1.56-.1.84 0 3.02 2.89 5.47 6.44 5.47 3.55 0 6.43-2.45 6.43-5.47 0-.28-.03-.56-.08-.84.79-.89.87-2.39.19-3.3a1.67 1.67 0 0 0-1.35-.73c-.44 0-.9.2-1.3.54a7.03 7.03 0 0 0-3.33-1.11c.02-.67.06-1.37.19-1.9a2 2 0 0 1 .27-.69c.1-.13.17-.18.34-.18.37 0 .41.12.63.43.11.15.24.34.44.53s.51.35.84.35v-1.31c-.1 0-.11 0-.17-.07-.06-.06-.15-.2-.27-.37-.26-.35-.74-.88-1.47-.88Zm3.54.12c-.84 0-1.53.83-1.53 1.85s.69 1.85 1.53 1.85c.85 0 1.53-.83 1.53-1.85s-.68-1.85-1.53-1.85Zm0 .66c.55 0 .99.54.99 1.2 0 .65-.44 1.18-.99 1.18-.54 0-.99-.53-.99-1.19 0-.65.45-1.19 1-1.19Zm-4.9 4.34c3.01 0 5.57 2.02 5.57 4.41 0 2.4-2.56 4.42-5.57 4.42-3.01 0-5.57-2.02-5.57-4.42 0-2.39 2.56-4.41 5.57-4.41Zm-5.17.6c.15 0 .3.04.46.12a5.2 5.2 0 0 0-1.28 1.72c-.2-.5-.15-1.14.1-1.48a.86.86 0 0 1 .72-.37Zm10.34 0c.28-.01.54.12.72.36.25.34.3.97.1 1.48a5.34 5.34 0 0 0-1.28-1.72c.16-.08.31-.13.46-.13Zm-7.35 1.64c-.54 0-.99.53-.99 1.19 0 .66.45 1.19 1 1.19.54 0 .98-.53.98-1.2 0-.65-.44-1.18-.99-1.18Zm4.36 0c-.55 0-.99.53-.99 1.19 0 .66.44 1.19.99 1.19.54 0 .99-.53.99-1.2 0-.65-.45-1.18-1-1.18Zm-4.89 4.04a2.98 2.98 0 0 0 2.71 1.71 3 3 0 0 0 2.72-1.7c-.63.48-1.62.82-2.72.82s-2.08-.34-2.7-.83Z" fill="#2D383F"/></svg>
